packages/bezier-icons/icons/windows-restore.svg

<svg xmlns="http://www.w3.org/2000/svg" width="24" height="24" fill="none" viewBox="0 0 24 24"><path fill="#313234" fill-rule="evenodd" d="M16 8h-6v1h5v5h1zm-1 7v2H7V9h2V7h8v8zm-7-5h6v6H8z" clip-rule="evenodd"/></svg>

<svg width="24" height="24" viewBox="0 0 24 24" fill="none" xmlns="http://www.w3.org/2000/svg">
<path fill-rule="evenodd" clip-rule="evenodd" d="M16 8H10V9H15V14H16V8ZM15 15V17H7V9H9V7H17V15H15ZM8 10H14V16H8V10Z" fill="#313234"/>
</svg>
